X:1
T:Ave dulcis Iesu
T:Jan Baptist Verrijt
T:Ave dulcis Iesu
C:Jan Baptist Verrijt
%%score [ 1 2 3 ] 4
L:1/8
Q:1/4=80
M:2/2
K:F
V:1 alto nm="Altus" snm="A"
V:2 tenor nm="Tenor" snm="T"
V:3 bass nm="Bassus" snm="B"
V:4 bass nm="Basso Continuo" snm="BC"
V:1
 z8 | z8 | z8 | z8 | z8 | z8 | z8 | D4 D4 | z2 D>D D>E F2- | F2 _E2 D4 | C4 z4 | z8 | z8 | _E4 E4 | %14
w: |||||||A- ve,|a- ve, a- ve dul-|* cis Ie-|su,|||a- ve,|
 z2 _EE EEE>F | G4 G4 | z G2 D2 G2 D | D>_EFE D4 | C4 z4 | z8 | z F2 C2 F2 C | C>D_ED C4 | B,4 z4 | %23
w: a- ve, a- ve dul- cis|Chri- ste,|a- ve, a- ve|fi- li De- i vi-|vi,||a- ve, a- ve|fi- li De- i vi-|vi,|
 z8 | z8 | z8 | z4 z2 C2 | A,2 F,F F3 E | FC D4 C>=B, | =B,/C/D/C<B,A,/ A,4 | z2 E2 C2 A,A | %31
w: |||rex|re- gum, rex glo- ri-|ae, vi- vi- fi- cans|gem- * * * * * ma,|rex re- gum, rex|
 A3 ^G AE F2- | F2 E>D D/E/F/E<DC/ | C4 z4 | z2 C2 _EE/E/DC | DD z D/E/ FFF_E/D/ | _E4 z4 | %37
w: glo- ri- ae, vi- vi-|* fi- cans gem- * * * * *|ma,|di- vi- nae no- bi- li-|ta- tis, et im- mar- ces- si- bi- lis|flos,|
 z2 z C/D/ _EEED/C/ | D4 z4 | z2 _E2 GG/G/FE | F2 F2 z4 | z2 GG _A2 _E>D | D4 C4 | %43
w: et im- mar- ces- si- bi- lis|flos,|di- vi- nae no- bi- li-|ta- tis,|di- gni- ta- tis hu-|ma- nae.|
[M:3/4] z2 G2 G2 | z2 F2 F2 | z2 F2 F2 | z2 F3 _E | D2 D2 C2 | D2 D2 z2 | z2 z2 G2- | G2 F4 | %51
w: Ei- a,|ei- a,|ei- a,|ei- a|pi- e Re-|demp- tor,|Re-|* demp-|
[M:2/2] _E2 G3 GF>E | D2 D2 z4 | z2 F3 F_E>D | C2 C>D _E2 D>C | C4 D4 | z4 z2 D2- | %57
w: tor, mi- se- re- re|me- i,|mi- se- re- re|me- i, dul- cis- si- me|Ie- su,|mi-|
 DDC>B, A,2 A,>B, | C2 B,>A, A,4 | G,4 z4 | z2 E3 ED>C | =B,2 B,>C D2 C>B, | =B,4 A,4 | %63
w: * se- re- re me- i, dul-|cis- si- me Ie-|su,|mi- se- re- re|me- i, dul- cis- si- me|Ie- su,|
 z4 z2 ^F2- | F^FE>D ^C2 C>D | E2 D>^C C4 | =B,4 z2 E2 | ^C2 C>C D2 D2 | =B,>B,B,B, C2 C2 | %69
w: mi-|* se- re- re me- i, dul-|cis- si- me Ie-|su, dul-|cis- si- me Ie- su,|mi- se- re- re me- i,|
"^rit." z4 z2 F2- | F_EE>E E4- | E4 !fermata!C4 |] %72
w: mi-|* se- re- re me-|* i.|
V:2
 z8 | C4 C4 | z2 C>C C>D _E2- | E2 =B,2 C4 | C8 | z8 | z8 | B,4 B,4 | z2 B,>B, B,>C D2- | %9
w: |A- ve,|a- ve, a- ve dul-|* cis Ie-|su,|||a- ve,|a- ve, a- ve dul-|
 DC C4 =B,2 | C4 z4 | z8 | z8 | C4 C4 | z2 C>C C>CC>D | _E4 E4 | z _E2 =B,2 E2 B, | =B,>CDC C3 B, | %18
w: * cis Ie- *|su,|||a- ve,|a- * a- * dul- cis|Chri- ste,|a- ve, a- ve|fi- li De- i vi- *|
 C4 z4 | z8 | z D2 A,2 D2 A, | A,>B,CB, B,3 A, | B,4 z4 | z8 | z2 A,2 F,2 D,D | D3 ^C DA, B,2- | %26
w: vi,||a- ve, a- ve|fi- li De- i vi- *|vi,||rex re- gum, rex|glo- ri- ae, vi- vi-|
 B,2 A,>G, G,/A,/B,/A,<G,F,/ | F,4 z4 | z8 | z8 | z8 | z4 z2 C2 | D2 CC C3 =B, | C4 z4 | %34
w: * fi- cans gem- * * * * *|ma,||||vi-|vi- fi- cans gem- *|ma,|
 z4 z2 G,2 | B,B,/B,/A,G, A,A, z A,/B,/ | CCCB,/A,/ B,4 | z2 z A,/B,/ CCCB,/A,/ | B,4 z4 | %39
w: di-|vi- nae no- bi- li- ta- tis, et im-|mar- ces- si- bi- lis flos,|et im- mar- ces- si- bi- lis|flos,|
 z2 C2 _EE/E/DC | D2 D2 z2 B,2- | B,B, C4 CC | C3 =B, C4 |[M:3/4] z2 _E2 E2 | z2 D2 D2 | %45
w: di- vi- nae no- bi- li-|ta- tis, di-|* gni- ta- tis hu-|ma- * nae.|Ei- a,|ei- a,|
 z2 _E2 E2 | z2 D3 C | =B,2 B,2 z2 | z2 z2 C2 | D2 D2 _E2 | _E4 D2 |[M:2/2] _E2 E3 E DC | %52
w: ei- a,|ei- a|pi- e|Re-|demp- tor, Re-|demp- *|tor, mi- se- re- *|
 =B,2 B,2 z4 | z2 D3 DC>B, | A,2 A,>B, C2 B,>A, | B,3 A, B,4 | z4 z2 B,2- | B,B,A,>G, ^F,2 F,>G, | %58
w: me- i,|mi- se- re- re|me- i, dul- cis- si- me|Ie- * su,|mi-|* se- re- re me- i, dul-|
 A,2 G,>G, G,3 ^F, | G,4 z4 | z2 C3 C=B,>A, | ^G,2 G,>A, =B,2 A,>A, | A,3 ^G, A,4 | z4 z2 D2- | %64
w: cis- si- me Ie- *|su,|mi- se- re- re|me- i, dul- cis- si- me|Ie- * su,|mi-|
 DD^C>=B, ^A,2 A,>B, | ^C2 =B,>B, B,3 ^A, | =B,4 z4 | z2 E2 A,2 A,>A, | D2 D2 z2 E2 | %69
w: * se- re- re me- i, dul-|cis- si- me Ie- *|su,|dul- cis- si- me|Ie- su, dul-|
 C2 C>C D2 D2 | G,G,CC C3 =B, | !fermata!C8 |] %72
w: cis- si- me Ie- su,|mi- se- re- re me- *|i.|
V:3
 z8 | z8 | z8 | z8 | G,4 G,4 | z2 G,>G, G,>A, B,2- | B,2 ^F,2 G,4 | G,4 z4 | z8 | z8 | C,4 C,4 | %11
w: ||||A- ve,|a- ve, a- ve dul-|* cis Ie-|su,|||a- ve,|
 z2 C,>C, C,>D, _E,2- | E,2 =B,,2 C,4 | C,4 z4 | z8 | z2 _E,>E,E,>E,E,>F, | G,4 G,4 | z8 | %18
w: a- ve, a- ve dul-|* cis Ie-|su,||a- ve, a- ve dul- cis|Chri- ste,||
 z C2 G,2 C2 G, | G,>_A,B,A, G,4 | F,4 z4 | z4 z2 F,2 | D,2 B,,B, B,3 A, | B,F, G,4 F,>E, | %24
w: a- ve, a- ve|fi- li De- i vi-|vi,|rex|re- gum, rex glo- ri-|ae, vi- vi- fi- cans|
 E,/F,/G,/F,<E,D,/ D,4 | z8 | z8 | z8 | z8 | z2 E,2 C,2 A,,A, | A,3 ^G, A,4 | z4 z2 A,,2 | %32
w: gem- * * * * * ma,|||||rex re- gum, rex|glo- ri- ae,|vi-|
 =B,,2 C,E, F,D,G,G,, | C,4 z4 | z8 | z8 | z2 z _E,/F,/ G,G,G,F,/E,/ | F,2 z2 z4 | %38
w: vi- fi- cans gem- * * *|ma,|||et im- mar- ces- si- bi- lis|flos,|
 z2 z B,, D,D,/D,/C,B,, | C,2 C,2 z4 | z2 z D,/_E,/ F,F,F,E,/D,/ | _E,2 E,E, F,2 _A,F, | G,4 C,4 | %43
w: di- vi- nae no- bi- li-|ta- tis,|et im- mar- ces- si- bi- lis|flos, di- gni- ta- tis hu-|ma- nae.|
[M:3/4] z2 _E,2 E,2 | z2 B,2 B,2 | z2 _A,2 A,2 | z2 _A,2 F,2 | G,2 G,2 _A,2 | B,2 B,2 _A,2 | B,6- | %50
w: Ei- a,|ei- a,|ei- a,|ei- a|pi- e Re-|demp- tor, Re-|demp-|
 B,6 |[M:2/2] _E,4 z4 | z2 G,3 G,F,>_E, | D,2 D,2 z4 | z8 | z4 z2 F,F, | ^F,>G,G,>F, G,2 G,2 | z8 | %58
w: |tor,|mi- se- re- re|me- i,||prop- ter|bo- ni- ta- tem tu- am,||
 z8 | z2 G,G, G,>A,A,>G, | A,2 A,2 z4 | z8 | z4 z2 A,A, | ^A,>=B,B,>A, B,2 B,2 | z8 | z8 | %66
w: |prop- ter bo- ni- ta- tem|tu- am,||prop- ter|bo- ni- ta- tem tu- am,|||
 z2 =B,2 ^G,2 G,>G, | A,2 A,2 ^F,>F,F,F, | G,2 G,2 E,>E,E,E, | F,2 F,2 D,>D,D,D, | %70
w: dul- cis- si- me|Ie- su, mi- se- re- re|me- i, mi- se- re- re|me- i, mi- se- re- re|
 _E,F,/G,/_A,/G,/A,/F,/ G,4 | !fermata!C,8 |] %72
w: me- * * * * * * *|i.|
V:4
 z8 | C,8- | C,8- | C,8 | C,8 | G,,8- | G,,8 | G,,8 | G,4 G,2 D,2 | _E,3 F, G,4 | C,4 C,4 | %11
w: |z|||z||||||z *|
 z2 C,>C,C,>D, _E,2- | E,2 =B,,2 C,4 | C,8- | C,8 | C,2 _E,>E,E,>E,E,>F, | G,8 | G,2 F,2 G,4 | %18
w: z * * * 5|* 6 z|||z 5 * * * * *|y|y * *|
 C,4 C,4 | C,2 B,,2 C,4 | F,,8 | F,,2 _E,,2 F,,4 | B,,4 F,,4 | B,,3 G,, A,,2 B,,2 | %24
w: |* 6 *|y||||
 G,,2 A,,2 D,,2 B,,2 | G,,2 A,,2 D,4 | E,2 F,2 C,4 | F,,2 A,,2 B,,2 C,2 | F,,3 G,, A,,2 D,,2 | %29
w: 6 x * *|||||
 E,,4 A,,4 | E,4 A,,4 | E,4 A,,4 | =B,,2 C,2 G,,4 | C,8 | C,8 | G,,4 D,4 | C,4 G,,4 | %37
w: %x~Y *|||||z||z *|
 F,,2 C,2 C,4 | B,,8 | C,8 | B,,8 | _E,4 F,2 _A,F, | G,4 C,4 |[M:3/4] z2 _E,2 E,2 | z2 B,2 B,2 | %45
w: * z z||||||||
 z2 _A,2 A,2 | z2 _A,2 F,2 | G,2 G,2 _A,2 | B,2 B,2 _A,2 | B,6- | B,6 |[M:2/2] _E,6 F,2 | %52
w: ^5£~z *|^4 *|y * 6|* * 6|%3|||
 G,2 G,3 G,F,>_E, | D,6 _E,2 | F,4 C,2 D,2 | _E,2 F,2 B,,4 | A,,4 G,,3 A,, | B,,2 C,2 D,4 | %58
w: y y y * *|* 6|* z 6|^5 4 *||* 6 x|
 A,,2 B,,2 C,2 D,2 | G,,4 E,,4 | A,,3 =B,, C,2 D,2 | E,2 D,C, =B,,2 C,2 | D,2 E,2 A,,4 | %63
w: * * z *||* * 5 6~y|%x~Y * 6 6~x 6||
 F,4 =B,,3 ^C, | D,2 E,2 ^F,4 | ^C,2 D,2 E,2 ^F,2 | =B,,4 E,4 | A,,2 A,2 ^F,4 | G,4 E,4 | F,4 D,4 | %70
w: |||5~x x|x x ^y|y 6||
 _E,2 _A,>F, G,4 | !fermata!C,8 |] %72
w: |z|

